X:1
T:Pourquoi pas
T:Pourquoi pas
T:Pierre Williet 
T:intro : G  F  G  F 
C:Pierre Williet
Z:All Rights Reserved
L:1/4
M:4/4
K:G
V:1 treble 
%%MIDI program 0
V:1
 z2 z D/A/ |: B3 c | d2- (3d c B | A2- (3A B c | E2 F z | G2 z A | B2- (3B c d | e3 .d | %8
 .c .B .A .G | e4- | e .g .f .e |1 d3 B | c3 z | .A .B .G .A | .F .G z2 | .^G ._B .=G .^G | %16
 .=F .^F z2 :|2 d3 e | .B .c .^G .B | B4- | B3 c | A/B/ A2 G/E/ | G4 || G4- | G F G3/2 E/ | D4- | %26
 D4 | E4- | E2 D E | D4- | D3 F/A/ | G3 g- | g2 _e2 | d4- | d z z2 | B .c .A B- | B z ^G ^A | G4- | %38
 G z z2 || %39

